X:1
T:Title
L:1/8
Q:1/4=150
M:3/4
K:Ab
V:1 treble nm="Grand Piano"
V:1
 C4 F2 | A4 G2 | F4 G2 | =E6 | C4 G2 | B4 A2 | G4 A2 | F6 | c4 e2 | d4 c2 | B4 (3ABA | G6 | c4 d2 | %13
w: ????~???? *|||||||||||||
 c4 B2 | A4 G2 | F6 | A4 F2 | A4 F2 | A4 c2 | B6 | B4 G2 | B4 G2 | B4 d2 | c6 | c4 e2 | d4 c2 | %26
w: |||||||||||||
 B4 (3ABA | G6 | c4 d2 | c4 B2 | A4 G2 |[M:7/4] F6 z2 z2 z4 |] %32
w: ||||||

